X:162
T:La Poole Quadrill
C:No 162 William Clarke of Feltwell
M:6/8
L:1/8
K:F
N: Bar 16 changed to G dotted cr.Minore – Bb changed to A in upbeat. Dots added to crs at beginning of bars 4 & 5. Bar 7 re-timed from E dotted cr, C# qu, D cr.
(A/B/)|(ca).a (eg).f|B2cc2d| c2 A c2 A|c2B G2 A/B/|(ca).a (eg).f|d3 dcB| Acc cBG| G3 F2||
A| BGE c2B| Acf a2f| bge c2 B| Adc c2A|BGE c2B| Acf a2f| egb cde | g3 f2||
“minore” A|d2z f3| e2 f gec| dfa bge| d3 ^c2 A| d3f2B |e2g f2d | e3 ^c3| d3-d2:||

